X:39
T:L'Andouille
R:Ronde
Z: Yves BELOTTEAU
Z:Transcrit et/ou corrigé par Michel BELLON - 2007-04-06
Z:Pour toute observation mailto:galouvielle@free.fr
M:4/4
L:1/8
Q:1/4=60
K:G
%%continueall 0
V:1
|:BB/2B/2 d3/2B/2 G/2G/2A/2A/2 BG  | BB/2B/2 d3/2B/2 G/2G/2A/2A/2G2:|
|: dB/2d/2 cA/2c/2 BA/2G/2 AA/2A/2 | dB/2d/2 cA/2c/2 BAG2:|
V:2
|: x8 | x8 ::
x8 | x8 :|

%%footer $D   Galouvielle-MBe 2007 \n-- (--)
